portfolio/ecw/static/images/icons/icon-download-1.svg

<?xml version="1.0" encoding="UTF-8"?>
<svg width="108px" height="83px" viewBox="0 0 108 83" version="1.1" xmlns="http://www.w3.org/2000/svg" xmlns:xlink="http://www.w3.org/1999/xlink">
    <!-- Generator: Sketch 54.1 (76490) - https://sketchapp.com -->
    <title>icon-download-3</title>
    <desc>Created with Sketch.</desc>
    <defs>
        <polygon id="path-1" points="0 0 54 0 54 50 0 50"></polygon>
    </defs>
    <g id="Page-1" stroke="none" stroke-width="1" fill="none" fill-rule="evenodd">
        <g id="icon-download-3">
            <circle id="Oval" fill="#CD171A" fill-rule="nonzero" cx="66.5" cy="41.5" r="41.5"></circle>
            <circle id="Oval-Copy-2" fill="#CD171A" fill-rule="nonzero" cx="20.5" cy="20.5" r="20.5"></circle>
            <g id="Group-3" transform="translate(44.000000, 16.000000)">
                <g id="Fill-1-Clipped">
                    <mask id="mask-2" fill="white">
                        <use xlink:href="#path-1"></use>
                    </mask>
                    <g id="path-1"></g>
                    <path d="M15.2814061,43.3333333 C14.3430599,43.3333333 13.5834721,44.0784 13.5834721,45 C13.5834721,45.9210667 14.3430599,46.6666667 15.2814061,46.6666667 C16.2197524,46.6666667 16.9793401,45.9210667 16.9793401,45 C16.9793401,44.0784 16.2197524,43.3333333 15.2814061,43.3333333 L15.2814061,43.3333333 Z M1.69793401,41.6666667 L14.9586628,41.6666667 C15.109711,41.8709333 15.2689093,42.0709333 15.4531012,42.2554667 C15.7122738,42.5061333 16.0371905,42.6688 16.3914475,42.7242667 L28.8159777,44.648 C28.5654985,46.7189333 26.7920404,48.3333333 24.6197715,48.3333333 L5.94304071,48.3333333 C3.60179346,48.3333333 1.69793401,46.4645333 1.69793401,44.1664 L1.69793401,41.6666667 Z M40.3554089,13.1541333 C40.9096146,13.1312 41.469797,13.304 41.9175082,13.6752 L48.7902018,19.5210667 C50.9505172,21.3605333 52.1947632,23.9168 52.2985409,26.7221333 C52.4001453,29.5264 51.3433512,32.1648 49.3205005,34.1493333 L42.1299537,41.2042667 C40.0245155,43.2709333 37.0106148,44.2314667 34.0711514,43.7749333 L16.6565968,41.0773333 C15.9437362,40.3770667 15.6889103,39.3978667 15.9714465,38.4501333 C16.2556127,37.4997333 17.0130271,36.8106667 17.9981005,36.6021333 L24.9816352,35.1082667 L26.457887,36.5562667 C26.6236053,36.7189333 26.8387675,36.8 27.0566464,36.8 C27.277242,36.8 27.4924042,36.7189333 27.6570359,36.5562667 C27.9911893,36.2314667 27.9911893,35.7034667 27.6570359,35.3770667 L25.8178337,33.5749333 L10.9303483,18.8789333 C9.94147156,17.904 9.94147156,16.3189333 10.9412151,15.3418667 C11.41881,14.8709333 12.0572332,14.6085333 12.7385801,14.6085333 C13.4199271,14.6085333 14.061067,14.8709333 14.5430086,15.3418667 L25.0049988,25.6138667 C25.1440935,25.8 25.2978584,25.9770667 25.4646635,26.1418667 L26.4714704,27.1242667 C26.8018205,27.4522667 27.3386393,27.4522667 27.6727927,27.1242667 C28.0031427,26.8 28.0031427,26.2752 27.6727927,25.9493333 L26.6659857,24.9648 C26.6073051,24.9061333 26.5491679,24.8437333 26.494834,24.7792 C26.4540836,24.6997333 26.4008364,24.6293333 26.3356357,24.5605333 L26.3144455,24.5418667 C25.585828,23.4661333 25.6982992,22.0021333 26.6540323,21.0522667 C26.6594657,21.048 26.6659857,21.0416 26.6703325,21.0373333 C27.6494291,20.0752 29.1789281,19.952 30.3101596,20.7418667 L31.9825567,21.9146667 C32.3411604,22.1648 32.8383155,22.1018667 33.1224817,21.7749333 C33.4088213,21.4416 33.3854577,20.9498667 33.0735812,20.6437333 C32.108068,19.6981333 32.0825311,18.1728 32.9909937,17.1936 C33.8483825,16.4250667 35.1458757,16.3248 36.121169,16.9626667 L37.3355314,17.7557333 L37.6376278,18.0554667 C37.6387145,18.0554667 37.6387145,18.0554667 37.6430612,18.0602667 C37.9750413,18.3856 38.5113168,18.3856 38.8443835,18.0602667 C39.1763635,17.7328 39.1763635,17.2064 38.8443835,16.8810667 L38.8443835,16.8784 C38.4270992,16.4688 38.1929202,15.9210667 38.1907468,15.3418667 C38.1907468,14.7584 38.4222092,14.2144 38.8400368,13.8021333 C39.2584077,13.3957333 39.8066367,13.1813333 40.3554089,13.1541333 L40.3554089,13.1541333 Z M1.69793401,8.33333333 L28.8648782,8.33333333 L28.8648782,18.5706667 C27.6401924,18.5189333 26.4111598,18.9456 25.481507,19.8437333 C25.4804203,19.8501333 25.4733569,19.856 25.4646635,19.8602667 C24.731156,20.5856 24.2981149,21.4997333 24.1785803,22.448 L15.7421575,14.1626667 C14.939646,13.3749333 13.8763318,12.9418667 12.7385801,12.9418667 C11.6030019,12.9418667 10.5396877,13.3792 9.73337277,14.1706667 C8.0821659,15.7914667 8.07781919,18.4314667 9.72304933,20.056 L22.8349033,32.9957333 C22.8414233,33.0021333 22.8457701,33.0106667 22.8560935,33.0208 L23.5553706,33.7104 L17.6351502,34.9749333 C16.0371905,35.3125333 14.8081579,36.4389333 14.3430599,37.9813333 C14.1393078,38.6576 14.1181176,39.3450667 14.2436288,40 L1.69793401,40 L1.69793401,8.33333333 Z M16.1306448,3.33333333 C15.6590266,3.33333333 15.2814061,3.70826667 15.2814061,4.16693333 C15.2814061,4.62506667 15.6590266,4.99946667 16.1306448,4.99946667 L19.5265128,4.99946667 C19.9975876,4.99946667 20.3752081,4.62506667 20.3752081,4.16693333 C20.3752081,3.70826667 19.9975876,3.33333333 19.5265128,3.33333333 L16.1306448,3.33333333 Z M11.0362994,3.33333333 C10.5652246,3.33333333 10.1876041,3.70826667 10.1876041,4.16693333 C10.1876041,4.62506667 10.5652246,4.99946667 11.0362994,4.99946667 L12.7347768,4.99946667 C13.2058516,4.99946667 13.5834721,4.62506667 13.5834721,4.16693333 C13.5834721,3.70826667 13.2058516,3.33333333 12.7347768,3.33333333 L11.0362994,3.33333333 Z M5.94304071,1.66613333 L24.6197715,1.66613333 C26.9610188,1.66613333 28.8648782,3.53546667 28.8648782,5.83306667 L28.8648782,6.66613333 L1.69793401,6.66613333 L1.69793401,5.83306667 C1.69793401,3.53546667 3.60179346,1.66613333 5.94304071,1.66613333 L5.94304071,1.66613333 Z M5.94304071,0 C2.66562056,0 0,2.61653333 0,5.83306667 L0,44.1664 C0,47.3834667 2.66562056,50 5.94304071,50 L24.6197715,50 C27.638019,50 30.1341178,47.7770667 30.509565,44.9125333 L33.806002,45.4229333 C34.3775945,45.5104 34.947557,45.5541333 35.5164328,45.5541333 C38.4222092,45.5541333 41.2513747,44.4229333 43.3334493,42.3834667 L50.5196494,35.3242667 C52.8777402,33.0106667 54.1111194,29.9354667 53.9921282,26.6624 C53.873137,23.3893333 52.4202488,20.4064 49.9002431,18.2624 L43.0193995,12.4085333 C41.4573002,11.1061333 39.0926894,11.2021333 37.6387145,12.6272 C36.9193338,13.3333333 36.5161764,14.2666667 36.4928128,15.2645333 C35.0312312,14.5957333 33.28168,14.8042667 32.0233071,15.8144 C31.9678866,15.8458667 31.9168127,15.8853333 31.8700856,15.9312 L31.7054539,16.0938667 C31.6587267,16.1397333 31.614173,16.1877333 31.583746,16.2394667 C30.9214159,17.0373333 30.6030193,18.0250667 30.6285562,18.9978667 C30.6095394,18.9877333 30.5818291,18.9834667 30.5628122,18.9706667 L30.5628122,5.83306667 C30.5628122,2.61653333 27.8928449,0 24.6197715,0 L5.94304071,0 Z" id="Fill-1" fill="#FEFEFE" fill-rule="nonzero" mask="url(#mask-2)"></path>
                </g>
            </g>
            <text id="1" fill="#FFFFFF" font-family="TisaSansOT, Tisa Sans OT" font-size="25" font-weight="normal">
                <tspan x="13.3" y="26">1</tspan>
            </text>
        </g>
    </g>
</svg>

<svg width="108" height="83" xmlns="http://www.w3.org/2000/svg" xmlns:xlink="http://www.w3.org/1999/xlink"><defs><path id="a" d="M0 0h54v50H0z"/></defs><g fill="none" fill-rule="evenodd"><circle fill="#CD171A" fill-rule="nonzero" cx="66.5" cy="41.5" r="41.5"/><circle fill="#CD171A" fill-rule="nonzero" cx="20.5" cy="20.5" r="20.5"/><g transform="translate(44 16)"><mask id="b" fill="#fff"><use xlink:href="#a"/></mask><path d="M15.281 43.333c-.938 0-1.698.745-1.698 1.667 0 .921.76 1.667 1.698 1.667.939 0 1.698-.746 1.698-1.667 0-.922-.76-1.667-1.698-1.667zM1.698 41.667h13.26c.152.204.31.404.495.588.26.251.584.414.938.47l12.425 1.923c-.25 2.07-2.024 3.685-4.196 3.685H5.943c-2.341 0-4.245-1.868-4.245-4.167v-2.5zm38.657-28.513a2.294 2.294 0 0 1 1.563.521l6.872 5.846c2.16 1.84 3.405 4.396 3.509 7.201.101 2.804-.956 5.443-2.978 7.427l-7.191 7.055c-2.105 2.067-5.12 3.027-8.059 2.57l-17.414-2.697a2.588 2.588 0 0 1-.686-2.627 2.65 2.65 0 0 1 2.027-1.848l6.984-1.494 1.476 1.448a.85.85 0 0 0 .599.244c.22 0 .435-.081.6-.244a.819.819 0 0 0 0-1.179l-1.84-1.802L10.93 18.879a2.47 2.47 0 0 1 .011-3.537 2.545 2.545 0 0 1 1.798-.733c.68 0 1.322.262 1.804.733l10.462 10.272c.14.186.293.363.46.528l1.006.982a.856.856 0 0 0 1.202 0 .82.82 0 0 0 0-1.175l-1.007-.984a2.964 2.964 0 0 1-.171-.186.941.941 0 0 0-.16-.218l-.02-.02a2.743 2.743 0 0 1 .339-3.489l.016-.015a2.857 2.857 0 0 1 3.64-.295l1.673 1.173a.865.865 0 0 0 1.14-.14.826.826 0 0 0-.05-1.131 2.47 2.47 0 0 1-.082-3.45 2.591 2.591 0 0 1 3.13-.231l1.215.793.302.3.005.004a.861.861 0 0 0 1.201 0 .823.823 0 0 0 0-1.179v-.003a2.157 2.157 0 0 1-.653-1.536c0-.584.231-1.128.649-1.54.418-.406.967-.62 1.515-.648zM1.698 8.334h27.167V18.57a4.573 4.573 0 0 0-3.383 1.273 4.409 4.409 0 0 0-1.303 2.604l-8.437-8.285a4.254 4.254 0 0 0-3.003-1.221 4.26 4.26 0 0 0-3.006 1.229 4.12 4.12 0 0 0-.01 5.885l13.112 12.94c.006.006.01.015.021.025l.7.69-5.92 1.264c-1.599.338-2.828 1.464-3.293 3.006a4.214 4.214 0 0 0-.1 2.019H1.699V8.333zm14.433-5a.841.841 0 0 0-.85.833.84.84 0 0 0 .85.832h3.396a.84.84 0 0 0 .848-.832.84.84 0 0 0-.848-.834H16.13zm-5.095 0a.84.84 0 0 0-.848.833.84.84 0 0 0 .848.832h1.699a.84.84 0 0 0 .848-.832.84.84 0 0 0-.848-.834h-1.699zM5.943 1.665H24.62c2.341 0 4.245 1.87 4.245 4.167v.833H1.698v-.833c0-2.298 1.904-4.167 4.245-4.167zm0-1.666C2.666 0 0 2.617 0 5.833v38.333C0 47.383 2.666 50 5.943 50H24.62c3.018 0 5.514-2.223 5.89-5.087l3.296.51a11.196 11.196 0 0 0 9.527-3.04l7.187-7.059c2.358-2.313 3.591-5.389 3.472-8.662-.119-3.273-1.572-6.256-4.092-8.4l-6.88-5.853c-1.563-1.303-3.927-1.207-5.381.218a3.794 3.794 0 0 0-1.146 2.638 4.314 4.314 0 0 0-4.47.55.743.743 0 0 0-.153.116l-.165.163a.74.74 0 0 0-.121.145 4.148 4.148 0 0 0-.955 2.759c-.02-.01-.047-.015-.066-.027V5.833C30.563 2.617 27.893 0 24.62 0H5.943z" fill="#FEFEFE" fill-rule="nonzero" mask="url(#b)"/></g><text fill="#FFF" font-family="TisaSansOT, Tisa Sans OT" font-size="25"><tspan x="13.3" y="26">1</tspan></text></g></svg>
